UI/POI/SVG/business_solid_24px.svg

<svg width="24" height="24" viewBox="0 0 24 24" fill="none" xmlns="http://www.w3.org/2000/svg">
<path fill-rule="evenodd" clip-rule="evenodd" d="M8 2V20H4V18H6V16H4V14H6V12H4V10H6V8H4C3.46957 8 2.96086 8.21071 2.58579 8.58579C2.21071 8.96086 2 9.46957 2 10V22H14V18H16V22H22V2H8ZM14 14H12V11H14V14ZM14 9H12V6H14V9ZM18 14H16V11H18V14ZM18 9H16V6H18V9Z" fill="#0F1621"/>
</svg>

<svg xmlns="http://www.w3.org/2000/svg" width="24" height="24" viewBox="0 0 24 24"><rect width="24" height="24" style="fill:none"/><path d="M8,2V20H4V18H6V16H4V14H6V12H4V10H6V8H4a2,2,0,0,0-2,2V22H14V18h2v4h6V2Zm6,12H12V11h2Zm0-5H12V6h2Zm4,5H16V11h2Zm0-5H16V6h2Z" style="fill-rule:evenodd"/></svg>
